!!!OTL: Das Grindelfest.
!!!OTL-incipit: DIE SCHNEIDER HIELTEN'S GRINDELFEST
!!!ARE: Europa, Mitteleuropa, Deutschland, Wetterau
!!!SCT: Z1315
!!!TXL: @@DE
!!!YEM: Copyright 1995, estate of Helmut Schaffrath.
**kern	**text
*ICvox	*
*M2/4	*
*k[b-e-]	*
*B-:	*
!LO:TX:a:t=Aus der Wetterau.	!
{8f	Die
=1	=1
8f	Schneider
8b-/	.
8b-/	hiel-
8b-/	-ten's
=2	=2
8.a	Grin-
16g	-del-
8f}	-feſt
{8f	am
=3	=3
8b-	Tag
8b-	Sankt
8cc	Bartlo-
8cc	.
=4	=4
4dd	-mä;
8r}	.
{8f	die
=5	=5
8f	Schneider
8b-/	.
8b-/	hiel-
8b-/	-ten's
=6	=6
8.a	Grin-
16g	-del-
8f}	-feſt
{8f	am
=7	=7
8b-	Tag
8b-	Sankt
8cc	Bartlo-
8cc	.
=8	=8
4.dd;}	-mä;
{8dd	da
=9	=9
8.dd	wa-
16dd	-ren
8dd	ih-
8dd	-rer
=10	=10
4dd	neun-
4ff}	-ʒig,
=11	=11
{8.cc	neun-
16cc	-mal
8cc	neun
8cc	und
=12	=12
4cc	neun-
8.ff}	-ʒig
{16ee-	ver-
=13	=13
8dd	-ſam-
8dd	-melt
8cc	auf
8cc	der
=14	=14
4b-	Höh'!
8r}	.
{8dd/	da
=15	=15
8dd/	wa-
8dd/	-ren
8dd/	ih-
8dd/	-rer
=16	=16
4dd/	neun-
4ff/}	-ʒig,
=17	=17
{8.cc/	neun-
16cc/	-mal
8cc/	neun
8cc/	und
=18	=18
4cc/	neun-
8.ff/}	-ʒig
{16ee-/	ver-
=19	=19
8dd/	-ſam-
8dd/	-melt
8cc/	auf
8cc/	der
=20	=20
4b-/	Höh'!
8r}	.
==	==
!!!AGN: Zech -, Schalks - Lied
!!!ONB: ESAC (Essen Associative Code) Database: ZUCCAL
!!!AMT: simple duple
!!!AIN: vox
!!!EED: Helmut Schaffrath
!!!EEV: 1.0
!!!GTL: VIII. Zech- und Schalks-Lieder.
!!!URL-scan: https://www.digitale-sammlungen.de/de/view/bsb11160573?page=575
!!!ENC: Anna Maria Matuszewska
!!!EEV: 2025/02/07
*-	*-
